X:18
T:Jesu Joy of Man's Desiring (BWV 147)
C:Bach, J.S.
M:9/8
L:1/8
Q:3/8=80
K:G
|:GAB|d3 Bcd e2d|cde d3 BcA|GAB d3 Bcd|e6 GAB|
d3 Bcd e2d|cde d3 BcA|GAB cBc dcd|G6:|

